X: 5
T:Pomp and Circumstance
R:March
M:4/4
L:1/4
Q:80
C:Sir Edward Elgar
K:G
D (3D/2D/2D/2 DD|DDEF|:G2
F/2G/2A|E2D2|C2B,/2C/2D|
A,4|B,2^C/2 DE/2|A2D2|G2G/2FE/2|D4|
G2F/2G/2A|E2D2|C2 B,/2C/2D|A,4|B,2 ^C/2 DE/2|
A2D2|c2 c/2 BA/2|B[BG][BF][B=F]|E2 F/2GA/2|D2G2|
G,2C/2 B,A,/2|[1G,(3D/2D/2D/2 DD:|[2G,4|]

